X:97
T:Untitled. JBs.097
S:Jas.Blackshaw MS, 1837, N.Shropshire
A:North Shropshire
Z:T. Weatherall 2006
M:2/4
L:1/8
Q:1/4=100
R:Quadrille Set Tune
K:F
z|câ€™2a2|f2c2|A/c/f A/c/f|ggz2|b2g2|e2c2|A/c/e A/c/e|ffz:|
|:c/B/|Ac f2|egb2|c/d/e/f/ g/a/b/g/|f/g/a/b/ câ€™2|\
dâ€™2z2|dâ€™2be|câ€™a bg/e/|f2f:|

